X:1
T:Title
%%score { 1 | 2 }
L:1/8
M:3/4
K:C
V:1 treble nm="Grand Piano"
V:2 bass 
V:1
 z2 z2[Q:1/4=100] [EG]2 | [EA][Ec] [EG]2 E2 | GF F2 F2 | [B,FA][B,FB] [B,DF]2 [B,FA]2 | %4
[M:2/4] [EG]4 |[M:1/4] [EG]2 |[M:3/4] [Ec][EG] [DF]2 E2 | ED A2 A2 | G3 [CE] [B,E][B,D] | %9
[M:2/4] C4 |[M:1/4] [Ec]2 |[M:3/4] [Ec]B F2 A2 | [FA][EG] E2 E2 | Dc B2 A2 |[M:2/4] [B,G]4 | %15
[M:1/4] [FG]2 |[M:3/4] [Ec][EG] [DF]2 E2 | ED A2 A2 | G3 E [B,E][B,D] |[M:2/4] C4 |] %20
V:2
 z2 z2 [C,C]2 | [C,C][C,C] [C,C]2 [C,G,C]2 | [D,B,D][D,B,D] [G,B,D]2 [G,B,D]2 | %3
 [G,,G,][G,,G,] [G,,G,]2 [G,,G,]2 |[M:2/4] [C,C]4 |[M:1/4] [C,C]2 | %6
[M:3/4] [C,G,][C,C] [B,,G,]2 [C,G,C]2 | [F,A,C][F,A,C] [F,A,C]2 [^F,C_E]2 | %8
 [G,CE]3 [G,,G,] [G,,G,][G,,F,] |[M:2/4] [C,E,]4 |[M:1/4] [C,G,]2 | %11
[M:3/4] [C,C][K:treble][G,DF] [G,B,]2 [G,B,F]2 | [C,C][C,C] [C,G,C]2 [C,G,C]2 | %13
 [D,^F,C][D,F,E] [D,F,D]2 [D,F,C]2 |[M:2/4] [G,,G,]4 |[M:1/4] [B,,G,]2 | %16
[M:3/4] [C,G,][C,C] [B,,G,]2 [C,G,C]2 | [F,A,C][F,A,C] [F,A,C]2 [^F,C_E]2 | %18
 [G,CE]3 [G,C] [G,,G,][G,,F,] |[M:2/4] [C,E,]4 |] %20

